svg/SJJB-OpenStreetMapIcons/shopping/butcher2.svg

<?xml version="1.0" encoding="UTF-8" standalone="no"?>
<!-- Created with Inkscape (http://www.inkscape.org/) -->

<svg
   xmlns:dc="http://purl.org/dc/elements/1.1/"
   xmlns:cc="http://creativecommons.org/ns#"
   xmlns:rdf="http://www.w3.org/1999/02/22-rdf-syntax-ns#"
   xmlns:svg="http://www.w3.org/2000/svg"
   xmlns="http://www.w3.org/2000/svg"
   xmlns:sodipodi="http://sodipodi.sourceforge.net/DTD/sodipodi-0.dtd"
   xmlns:inkscape="http://www.inkscape.org/namespaces/inkscape"
   version="1.0"
   width="580"
   height="580"
   id="svg2"
   sodipodi:version="0.32"
   inkscape:version="0.48.0 r9654"
   sodipodi:docname="shopping_butcher2.svg"
   inkscape:output_extension="org.inkscape.output.svg.inkscape">
  <metadata
     id="metadata10">
    <rdf:RDF>
      <cc:Work
         rdf:about="">
        <dc:format>image/svg+xml</dc:format>
        <dc:type
           rdf:resource="http://purl.org/dc/dcmitype/StillImage" />
        <cc:license
           rdf:resource="http://web.resource.org/cc/PublicDomain" />
        <dc:language>en</dc:language>
        <dc:title></dc:title>
      </cc:Work>
    </rdf:RDF>
  </metadata>
  <sodipodi:namedview
     inkscape:window-height="1002"
     inkscape:window-width="1280"
     inkscape:pageshadow="2"
     inkscape:pageopacity="0.0"
     guidetolerance="10.0"
     gridtolerance="10.0"
     objecttolerance="10.0"
     borderopacity="1.0"
     bordercolor="#666666"
     pagecolor="#ffffff"
     id="base"
     showgrid="false"
     inkscape:zoom="1.0610557"
     inkscape:cx="300.45434"
     inkscape:cy="229.13057"
     inkscape:window-x="97"
     inkscape:window-y="24"
     inkscape:current-layer="svg2"
     inkscape:window-maximized="0" />
  <defs
     id="defs4">
    <clipPath
       id="clipoutline2"
       clipPathUnits="userSpaceOnUse">
      <path
         d="M 55.8,12 L 56.56,12.16 C 65.4,9.22 85.24,20.8 80.82,31.12 C 79.7,32.74 79.89,35.62 81.24,37.43 L 56.43,62.25 C 55.04,60.86 51.95,60.89 50.53,62.25 L 9.5,101.63 C 5.76,105.22 8.7,108.27 10.28,109.88 L 17.64,117.24 C 19.25,118.84 23.5,121 26.52,117.8 L 65.24,76.99 C 66.59,75.57 66.6,72.52 65.24,71.12 C 65.24,71.12 65.25,71.1 65.24,71.1 L 90.15,46.2 C 92.78,48.57 95.263827,48.774854 97.62,48.13 C 102.17057,46.884568 104.70725,51.336643 107.43,54.59 L 106.2,55.8 C 104.38,57.64 104.55,60.74 106.59,62.78 C 108.63,64.82 111.74,64.99 113.56,63.17 L 121.7,55.04 C 123.52,53.2 123.35,50.1 121.3,48.07 C 119.46,46.22 116.79,45.98 114.93,47.3 C 109.35,41.04 112.28,40.1 104.92,31.95 L 91.13,17.86 C 81.2,8.12 68.3,8.13 55.8,12 z"
         id="outline2" />
    </clipPath>
    <clipPath
       id="clipoutline1"
       clipPathUnits="userSpaceOnUse">
      <path
         d="M 22.42,17.2 L 35.38,30.15 L 32.88,38.93 L 24.1,41.43 L 11.14,28.47 L 5.28,34.33 L 20.17,55.79 L 37.73,52.45 L 99.36,118.07 C 108.8,127.58 121.53,113.32 112.7,105.2 L 46.85,42.92 L 50.86,25.16 L 28.72,10.89 L 22.42,17.2 z M 103.48,109.17 C 105.16,107.49 107.88,107.49 109.56,109.17 C 111.24,110.85 111.24,113.57 109.56,115.25 C 107.88,116.92 105.16,116.92 103.48,115.25 C 101.8,113.57 101.8,110.85 103.48,109.17 z"
         id="outline1" />
    </clipPath>
    <inkscape:perspective
       sodipodi:type="inkscape:persp3d"
       inkscape:vp_x="0 : 290 : 1"
       inkscape:vp_y="0 : 1000 : 0"
       inkscape:vp_z="580 : 290 : 1"
       inkscape:persp3d-origin="290 : 193.33333 : 1"
       id="perspective12" />
    <style
       type="text/css"
       id="style6">
   
    .fil0 {fill:#EF7900}
   
  </style>
    <inkscape:perspective
       id="perspective6807"
       inkscape:persp3d-origin="29.116032 : 19.410688 : 1"
       inkscape:vp_z="58.232063 : 29.116032 : 1"
       inkscape:vp_y="0 : 1000 : 0"
       inkscape:vp_x="0 : 29.116032 : 1"
       sodipodi:type="inkscape:persp3d" />
    <inkscape:perspective
       id="perspective6954"
       inkscape:persp3d-origin="290 : 193.33333 : 1"
       inkscape:vp_z="580 : 290 : 1"
       inkscape:vp_y="0 : 1000 : 0"
       inkscape:vp_x="0 : 290 : 1"
       sodipodi:type="inkscape:persp3d" />
    <marker
       viewBox="0 0 10 10"
       refY="5"
       refX="10"
       orient="auto"
       markerWidth="4"
       markerUnits="strokeWidth"
       markerHeight="3"
       id="ArrowStart">
      <path
         id="path2295"
         d="M 10 0 L 0 5 L 10 10 z" />
    </marker>
    <marker
       viewBox="0 0 10 10"
       refY="5"
       refX="0"
       orient="auto"
       markerWidth="4"
       markerUnits="strokeWidth"
       markerHeight="3"
       id="ArrowEnd">
      <path
         id="path2292"
         d="M 0 0 L 10 5 L 0 10 z" />
    </marker>
    <inkscape:perspective
       id="perspective7597"
       inkscape:persp3d-origin="178.5405 : 158.483 : 1"
       inkscape:vp_z="357.08099 : 237.7245 : 1"
       inkscape:vp_y="0 : 1000 : 0"
       inkscape:vp_x="0 : 237.7245 : 1"
       sodipodi:type="inkscape:persp3d" />
  </defs>
  <g
     id="g1327">
    <path
       d="M 66.275,1.768 C 24.94,1.768 1.704,23.139 1.704,66.804 L 1.704,516.927 C 1.704,557.771 22.598,579.156 63.896,579.156 L 515.92,579.156 C 557.227,579.156 578.149,558.84 578.149,516.927 L 578.149,66.804 C 578.149,24.203 557.227,1.768 514.627,1.768 C 514.624,1.768 66.133,1.625 66.275,1.768 z"
       style="fill:#111111;stroke:#eeeeee;stroke-width:3.40799999"
       id="path1329" />
  </g>
  <g
     id="g2319"
     transform="translate(879.29125,36.805119)">
    <path
       id="path2323"
       style="fill:#ffffff;stroke:none"
       d="" />
  </g>
  <g
     id="g2325"
     transform="translate(879.29125,36.805119)">
    <path
       id="path2329"
       style="fill:#ffffff;stroke:none"
       d="" />
  </g>
  <g
     transform="translate(166.42563,67.96431)"
     id="g13" />
  <g
     transform="matrix(32.112803,0,0,32.112803,41.50013,-33245.965)"
     id="layer1"
     style="display:inline">
    <path
       inkscape:connector-curvature="0"
       d="m 6.791632,1048.0368 c 0,0 -1.336274,-1.567 -2.72571,-3.8465 -1.102407,-1.8085 -2.121982,-4.1906 -2.215354,-4.4437 0.752577,-0.5472 4.593113,-2.2768 5.371772,-2.4463 0.226417,0.8747 0.58088,2.5876 1.329796,4.2517 0.773744,1.7193 1.705148,3.0597 2.051811,3.5127 -0.829557,0.7825 -3.812315,2.9721 -3.812315,2.9721 z m 2.617005,-0.9585 c 0.09655,0.8013 2.796805,4.527 3.709753,5.2027 0.352387,0.2608 0.598765,0.048 1.19729,-0.3748 0.598504,-0.4231 0.823826,-0.7834 0.605721,-1.2928 -0.447665,-1.0456 -2.405882,-4.7995 -3.325268,-5.4011 -0.884575,-1.2876 -1.625777,-2.2611 -2.354695,-4.0463 -0.754178,-1.847 -1.235513,-3.7233 -1.524107,-4.8256 -1.026691,0.2979 -2.726886,1.0185 -3.772883,1.5009 -1.165407,0.5374 -1.99909,1.0621 -2.92518,1.5588 0.292933,0.8518 0.993339,2.9498 2.456052,5.2163 1.155768,1.7909 2.12744,3.2168 3.223152,4.3016 l 2.710165,-1.8397 z m -4.060504,-7.4527 c 0,-0.4143 0.354703,-0.7504 0.792252,-0.7504 0.437549,0 0.792253,0.3361 0.792253,0.7504 0,0.4146 -0.354704,0.7507 -0.792253,0.7507 -0.437549,0 -0.792252,-0.3361 -0.792252,-0.7507 z"
       id="path3670"
       style="fill:#ffffff;fill-opacity:1;fill-rule:evenodd;stroke:none;stroke-width:0.31140227999999998;stroke-miterlimit:4;stroke-dasharray:none;stroke-opacity:1" />
    <path
       style="fill:#ffffff;fill-opacity:1;fill-rule:evenodd;stroke:none;stroke-width:0.31140227999999998;stroke-miterlimit:4;stroke-dasharray:none;stroke-opacity:1"
       id="path4008"
       d="m 6.791632,1048.0368 c 0,0 -1.336274,-1.567 -2.72571,-3.8465 -1.102407,-1.8085 -2.121982,-4.1906 -2.215354,-4.4437 0.752577,-0.5472 4.593113,-2.2768 5.371772,-2.4463 0.226417,0.8747 0.58088,2.5876 1.329796,4.2517 0.773744,1.7193 1.705148,3.0597 2.051811,3.5127 -0.829557,0.7825 -3.812315,2.9721 -3.812315,2.9721 z m 2.617005,-0.9585 c 0.09655,0.8013 2.796805,4.527 3.709753,5.2027 0.352387,0.2608 0.598765,0.048 1.19729,-0.3748 0.598504,-0.4231 0.823826,-0.7834 0.605721,-1.2928 -0.447665,-1.0456 -2.405882,-4.7995 -3.325268,-5.4011 -0.884575,-1.2876 -1.625777,-2.2611 -2.354695,-4.0463 -0.754178,-1.847 -1.235513,-3.7233 -1.524107,-4.8256 -1.026691,0.2979 -2.726886,1.0185 -3.772883,1.5009 -1.165407,0.5374 -1.99909,1.0621 -2.92518,1.5588 0.292933,0.8518 0.993339,2.9498 2.456052,5.2163 1.155768,1.7909 2.12744,3.2168 3.223152,4.3016 l 2.710165,-1.8397 z m -4.060504,-7.4527 c 0,-0.4143 0.354703,-0.7504 0.792252,-0.7504 0.437549,0 0.792253,0.3361 0.792253,0.7504 0,0.4146 -0.354704,0.7507 -0.792253,0.7507 -0.437549,0 -0.792252,-0.3361 -0.792252,-0.7507 z"
       inkscape:connector-curvature="0" />
  </g>
  <g
     style="display:inline"
     id="g4034"
     transform="matrix(32.112803,0,0,32.112803,41.50013,-33245.965)">
    <path
       style="fill:#ffffff;fill-opacity:1;fill-rule:evenodd;stroke:none;stroke-width:0.31140227999999998;stroke-miterlimit:4;stroke-dasharray:none;stroke-opacity:1"
       id="path4036"
       d="m 6.791632,1048.0368 c 0,0 -1.336274,-1.567 -2.72571,-3.8465 -1.102407,-1.8085 -2.121982,-4.1906 -2.215354,-4.4437 0.752577,-0.5472 4.593113,-2.2768 5.371772,-2.4463 0.226417,0.8747 0.58088,2.5876 1.329796,4.2517 0.773744,1.7193 1.705148,3.0597 2.051811,3.5127 -0.829557,0.7825 -3.812315,2.9721 -3.812315,2.9721 z m 2.617005,-0.9585 c 0.09655,0.8013 2.796805,4.527 3.709753,5.2027 0.352387,0.2608 0.598765,0.048 1.19729,-0.3748 0.598504,-0.4231 0.823826,-0.7834 0.605721,-1.2928 -0.447665,-1.0456 -2.405882,-4.7995 -3.325268,-5.4011 -0.884575,-1.2876 -1.625777,-2.2611 -2.354695,-4.0463 -0.754178,-1.847 -1.235513,-3.7233 -1.524107,-4.8256 -1.026691,0.2979 -2.726886,1.0185 -3.772883,1.5009 -1.165407,0.5374 -1.99909,1.0621 -2.92518,1.5588 0.292933,0.8518 0.993339,2.9498 2.456052,5.2163 1.155768,1.7909 2.12744,3.2168 3.223152,4.3016 l 2.710165,-1.8397 z m -4.060504,-7.4527 c 0,-0.4143 0.354703,-0.7504 0.792252,-0.7504 0.437549,0 0.792253,0.3361 0.792253,0.7504 0,0.4146 -0.354704,0.7507 -0.792253,0.7507 -0.437549,0 -0.792252,-0.3361 -0.792252,-0.7507 z"
       inkscape:connector-curvature="0" />
    <path
       inkscape:connector-curvature="0"
       d="m 9.408637,1047.0783 c 0.09655,0.8013 2.796805,4.527 3.709753,5.2027 0.352387,0.2608 0.598765,0.048 1.19729,-0.3748 0.598504,-0.4231 0.823826,-0.7834 0.605721,-1.2928 -0.447665,-1.0456 -2.405882,-4.7995 -3.325268,-5.4011 -0.884575,-1.2876 -1.625777,-2.2611 -2.354695,-4.0463 -0.754178,-1.847 -1.235513,-3.7233 -1.524107,-4.8256 -1.026691,0.2979 -2.726886,1.0185 -3.772883,1.5009 -1.165407,0.5374 -1.99909,1.0621 -2.92518,1.5588 0.292933,0.8518 0.993339,2.9498 2.456052,5.2163 1.155768,1.7909 2.12744,3.2168 3.223152,4.3016 z"
       id="path4038"
       style="opacity:0.1;fill:#ffffff;fill-opacity:1;fill-rule:evenodd;stroke:none"
       sodipodi:nodetypes="cccccccccscc" />
  </g>
</svg>

<svg xmlns="http://www.w3.org/2000/svg" viewBox="0 0 580 580" xmlns:xlink="http://www.w3.org/1999/xlink"><defs><path id="0" d="m6.792 1048.04c0 0-1.336-1.567-2.726-3.847-1.102-1.809-2.122-4.191-2.215-4.444.753-.547 4.593-2.277 5.372-2.446.226.875.581 2.588 1.33 4.252.774 1.719 1.705 3.06 2.052 3.513-.83.783-3.812 2.972-3.812 2.972m2.617-.958c.097.801 2.797 4.527 3.71 5.203.352.261.599.048 1.197-.375.599-.423.824-.783.606-1.293-.448-1.046-2.406-4.8-3.325-5.401-.885-1.288-1.626-2.261-2.355-4.046-.754-1.847-1.236-3.723-1.524-4.826-1.027.298-2.727 1.018-3.773 1.501-1.165.537-1.999 1.062-2.925 1.559.293.852.993 2.95 2.456 5.216 1.156 1.791 2.127 3.217 3.223 4.302l2.71-1.84m-4.061-7.453c0-.414.355-.75.792-.75.438 0 .792.336.792.75 0 .415-.355.751-.792.751-.438 0-.792-.336-.792-.751" fill-rule="evenodd" fill="#fff"/><clipPath><path d="m55.8 12l.76.16c8.84-2.94 28.68 8.64 24.26 18.96-1.12 1.62-.93 4.5.42 6.31l-24.81 24.82c-1.39-1.39-4.48-1.36-5.9 0l-41.03 39.38c-3.74 3.59-.8 6.64.78 8.25l7.36 7.36c1.61 1.6 5.86 3.76 8.88.56l38.72-40.81c1.35-1.42 1.36-4.47 0-5.87 0 0 .001-.02 0-.02l24.91-24.9c2.63 2.37 5.114 2.575 7.47 1.93 4.551-1.245 7.087 3.207 9.81 6.46l-1.23 1.21c-1.82 1.84-1.65 4.94.39 6.98 2.04 2.04 5.15 2.21 6.97.39l8.14-8.13c1.82-1.84 1.65-4.94-.4-6.97-1.84-1.85-4.51-2.09-6.37-.77-5.58-6.26-2.65-7.2-10.01-15.35l-13.79-14.09c-9.93-9.74-22.83-9.73-35.33-5.86"/></clipPath><clipPath><path d="m22.42 17.2l12.96 12.95-2.5 8.78-8.78 2.5-12.96-12.96-5.86 5.86 14.89 21.46 17.56-3.34 61.63 65.62c9.44 9.51 22.17-4.75 13.34-12.87l-65.85-62.28 4.01-17.76-22.14-14.27-6.3 6.31m81.06 91.97c1.68-1.68 4.4-1.68 6.08 0 1.68 1.68 1.68 4.4 0 6.08-1.68 1.67-4.4 1.67-6.08 0-1.68-1.68-1.68-4.4 0-6.08"/></clipPath></defs><path d="m66.28 1.768c-41.34 0-64.57 21.371-64.57 65.04v450.12c0 40.844 20.894 62.23 62.19 62.23h452.02c41.31 0 62.23-20.316 62.23-62.23v-450.12c0-42.601-20.922-65.04-63.52-65.04-.003 0-448.49-.143-448.35 0z" fill="#111" stroke="#eee" stroke-width="3.408"/><g transform="matrix(32.1128 0 0 32.1128 41.5-33245.96)"><use xlink:href="#0"/><use xlink:href="#0"/></g><g transform="matrix(32.1128 0 0 32.1128 41.5-33245.96)"><use xlink:href="#0"/><path d="m9.409 1047.08c.097.801 2.797 4.527 3.71 5.203.352.261.599.048 1.197-.375.599-.423.824-.783.606-1.293-.448-1.046-2.406-4.8-3.325-5.401-.885-1.288-1.626-2.261-2.355-4.046-.754-1.847-1.236-3.723-1.524-4.826-1.027.298-2.727 1.018-3.773 1.501-1.165.537-1.999 1.062-2.925 1.559.293.852.993 2.95 2.456 5.216 1.156 1.791 2.127 3.217 3.223 4.302z" opacity=".1" fill="#fff" fill-rule="evenodd"/></g></svg>
